X: 312
M: 2/2
L: 1/8
K: G
!segno!G2G2 |\
[| "2.F."d2d2 |\
e2dc d4 | !+!B4 c2B2 | A2G2 AGFE | D2D2 d2d2 |\
e2dc d4 | !+!B4 c2B2 | A2BG | A4 | A4 !segno!|]

